X:1
T: Vals av Tros Kari Mats
C: Tros Kari Mats
S: Utlärd av Kalle Almlöf
Z: Karin Arén
M: 3/4
L: 1/4
K: G
D |:vG G/G/ G/G/ | uGAB | vG3 | uD2 v(D |G) G/G/ G/G/ |  uGAB | v(d3 | d2) B | 
vc2 uc | e2 e | vc>Bc | ue2 v(c | d)>d d | ud^cd |1 v(B3 | B2) uD :|2 v(B3 | B2) ud | 
v(g3 | g)(fe) | vf>A (A/B/) | uc3 | ve>e e/e/ | v(e/d/) (d/c/) (c/B/) | ud3 | vd2 uD | 
vB2uB | vd2c | vBGB | udBA | vF>F F/E/ | vD(BA) | vG>G G | u(G3 |G2) B/d/ :|

